pest-logo.svg

<?xml version="1.0" encoding="utf-8"?>
<!DOCTYPE svg PUBLIC "-//W3C//DTD SVG 1.1//EN" "http://www.w3.org/Graphics/SVG/1.1/DTD/svg11.dtd">
<svg version="1.1" id="Layer_1" xmlns="http://www.w3.org/2000/svg" xmlns:xlink="http://www.w3.org/1999/xlink" x="0px" y="0px"
	 width="256px" height="180px" viewBox="0 0 256 180" enable-background="new 0 0 256 180" xml:space="preserve">
<g>
	<path d="M166.882,45.42c5.519-1.676,10.708-3.04,15.746-4.83c7.699-2.736,15.242-5.908,23.306-7.524
		c6.7-1.343,13.398-2.214,20.149-0.458c3.892,1.012,7.53,2.549,10.115,5.831c1.894,2.405,2.464,5.072,0.934,7.846
		c-0.438,0.795-1.34,1.548-2.196,1.855c-1.843,0.66-3.293-0.761-2.917-2.684c0.202-1.033,0.505-2.046,0.692-3.08
		c0.264-1.458-0.196-2.635-1.396-3.572c-2.621-2.048-5.687-2.955-8.883-3.428c-9.298-1.377-18.168,0.468-26.82,3.761
		c-7.54,2.87-15.058,5.797-22.618,8.614c-1.823,0.679-3.761,1.07-5.667,1.498c-0.95,0.213-1.41,0.618-1.57,1.628
		c-1.393,8.824-2.988,17.619-4.232,26.464c-1.572,11.172-1.993,22.425-1.555,33.698c0.105,2.699,0.393,5.42,0.926,8.065
		c0.832,4.128,3.009,4.873,6.252,2.237c3.347-2.72,6.117-6.009,8.216-9.75c3.902-6.953,7.607-14.016,11.379-21.041
		c2.33-4.339,4.648-8.679,8.173-12.221c2.946-2.96,6.436-4.593,10.662-4.349c0.616,0.036,1.208,0.501,1.811,0.767
		c-0.452,0.476-0.833,1.067-1.374,1.397c-0.628,0.383-1.376,0.652-2.105,0.77c-4.212,0.682-7.414,3.026-9.52,6.529
		c-2.757,4.586-5.27,9.344-7.554,14.185c-4.229,8.966-8.624,17.822-15.11,25.41c-1.968,2.303-4.217,4.487-6.7,6.2
		c-3.622,2.5-7.116,1.431-9.407-2.381c-2.199-3.66-2.975-7.757-3.507-11.897c-1.191-9.282-0.461-18.564,0.14-28.051
		c-0.316,0.424-0.548,0.706-0.748,1.009c-2.183,3.308-4.333,6.639-6.56,9.917c-0.506,0.745-0.567,1.295-0.236,2.155
		c3.272,8.49,4.214,17.151,1.338,25.934c-2.317,7.074-6.5,12.613-13.623,15.545c-6.166,2.539-12.431,0.569-15.184-4.872
		c-1.548-3.058-1.398-6.202-0.281-9.355c1.179-3.33,3.205-6.119,5.597-8.665c4.131-4.396,8.252-8.802,12.416-13.166
		c0.734-0.769,0.772-1.364,0.352-2.352c-2.267-5.33-5.68-9.905-9.282-14.526c-1.696,2.762-3.206,5.562-5.036,8.136
		c-4.276,6.013-8.543,12.045-13.123,17.825c-3.603,4.548-8.37,7.267-14.43,7.213c-6.845-0.061-12.354-3.954-14.371-10.498
		c-0.747-2.423-1.061-4.98-1.594-7.583c-0.218,0.357-0.512,0.811-0.778,1.28c-2.976,5.251-6.61,9.885-12.309,12.389
		c-5.949,2.614-11.847,2.163-17.549-0.808c-0.877-0.457-1.63-1.335-2.179-2.186c-0.61-0.946-0.032-1.683,1.1-1.517
		c0.58,0.085,1.17,0.311,1.685,0.599c5.491,3.076,9.598,1.348,12.567-3.438c3.905-6.294,5.629-13.311,5.396-20.689
		c-0.19-6.01-5.197-8.886-10.467-6.02c-1.954,1.062-3.841,2.706-5.078,4.543c-4.237,6.293-7.827,12.97-10.449,20.119
		c-0.373,1.018-0.6,2.135-0.654,3.219c-0.72,14.469-1.007,28.939,0.1,43.405c0.077,1,0.101,2.011,0.063,3.013
		c-0.074,1.98-1.311,3.253-3.159,3.33c-1.909,0.08-3.297-1.008-3.458-2.992c-0.57-7.007-1.315-14.014-1.523-21.034
		c-0.464-15.647,0.484-31.255,2.065-46.82c0.481-4.739,1.166-9.461,1.872-14.173c0.182-1.215,0.676-2.428,1.252-3.523
		c0.451-0.856,1.11-1.78,1.922-2.236c2.504-1.403,4.706-1.094,4.619,2.204c-0.126,4.754-0.523,9.513-1.054,14.242
		c-0.521,4.631-1.354,9.227-2.051,13.839c0.118,0.042,0.236,0.084,0.354,0.126c0.217-0.441,0.436-0.88,0.649-1.323
		c2.781-5.79,5.427-11.664,9.627-16.623c2.487-2.937,5.445-5.316,9.379-5.832c5.636-0.739,9.525,1.745,11.729,7.059
		c3.203,7.722,2.116,15.124-1.572,22.342c-1.593,3.118-3.666,5.874-6.303,8.307c0.417-0.241,0.85-0.458,1.249-0.726
		c4.544-3.052,7.461-7.481,10.373-11.975c2.908-4.486,4.169-9.627,6.276-14.425c2.85-6.49,7.153-11.762,14.006-14.391
		c4.279-1.642,8.391-1.528,11.846,1.974c3.185,3.228,2.766,8.848-0.832,12.142c-4.166,3.814-9.269,5.694-14.596,7.114
		c-0.872,0.232-1.756,0.537-2.643,0.57c-1.531,0.057-2.123,0.784-2.303,2.254c-0.62,5.059-0.593,10.071,1.51,14.8
		c0.731,1.643,1.886,3.244,3.226,4.44c2.65,2.364,5.985,2.323,9.356,0.28c3.865-2.341,6.823-5.669,9.368-9.28
		c4.595-6.521,8.914-13.235,13.386-19.843c0.612-0.904,0.5-1.508-0.148-2.351c-2.973-3.869-5.791-7.851-7.182-12.618
		c-1.447-4.96-1.234-9.857,1.064-14.519c2.393-4.854,7.86-7.575,13.276-7c2.858,0.303,5.373,1.093,6.687,3.84
		c1.312,2.744,1.03,5.685,0.574,8.586c-0.817,5.203-2.585,10.086-4.964,14.771c-0.235,0.463-0.275,1.284-0.018,1.699
		c3.202,5.157,6.475,10.27,9.734,15.39c0.077,0.121,0.215,0.202,0.662,0.608c3.209-5.32,6.388-10.537,9.49-15.799
		c0.382-0.648,0.401-1.533,0.503-2.32c1.13-8.665,2.244-17.333,3.356-26.001c0.018-0.137-0.031-0.282-0.058-0.504
		c-3.884,0.379-7.716,0.294-11.486-0.743c-4.931-1.356-7.885-5.893-6.455-10.227c0.442-1.339,1.311-2.591,2.2-3.713
		c0.945-1.193,3.157-1.275,4.435-0.407c0.902,0.613,0.832,1.346,0.406,2.221c-0.8,1.643-1.441,3.342-0.879,5.209
		c0.931,3.094,3.145,4.61,6.511,4.364c1.699-0.124,3.378-0.5,5.076-0.659c0.897-0.084,1.119-0.507,1.26-1.32
		c1.267-7.319,2.573-14.631,3.893-21.94c0.532-2.948,2.236-4.884,5.174-5.62c3.449-0.864,5.964,1.497,5.202,4.977
		c-1.458,6.664-3.013,13.307-4.524,19.96C167.18,43.769,167.095,44.304,166.882,45.42z M136.913,107.995
		c-4.801,4.906-9.53,9.544-14.019,14.404c-2.319,2.51-3.651,5.606-3.47,9.19c0.272,5.383,5.262,8.628,9.934,6.36
		c3.538-1.717,6.047-4.489,7.364-8.173C139.282,122.616,138.68,115.386,136.913,107.995z M88.301,91.014
		c0.322,0.099,0.372,0.133,0.413,0.124c0.489-0.103,0.982-0.193,1.463-0.324c4.674-1.277,9.235-2.794,12.845-6.251
		c2.371-2.271,2.822-4.808,1.246-6.807c-1.632-2.069-4.514-2.238-7.197-0.42c-0.166,0.113-0.339,0.222-0.486,0.357
		C92.599,81.352,90.245,86.008,88.301,91.014z M130.221,75.724c1.9-3.705,3.239-7.484,3.75-11.47
		c0.294-2.292,0.284-4.684-0.028-6.972c-0.252-1.856-1.746-2.472-3.634-2.173c-2.705,0.429-3.864,2.332-4.424,4.684
		C124.445,65.833,127.045,70.802,130.221,75.724z"/>
</g>
</svg>

<?xml version="1.0" encoding="UTF-8" standalone="no"?>
<!DOCTYPE svg PUBLIC "-//W3C//DTD SVG 1.1//EN" "http://www.w3.org/Graphics/SVG/1.1/DTD/svg11.dtd">
<svg width="100%" height="100%" viewBox="0 0 2606 1149" version="1.1" xmlns="http://www.w3.org/2000/svg" xmlns:xlink="http://www.w3.org/1999/xlink" xml:space="preserve" style="fill-rule:evenodd;clip-rule:evenodd;stroke-linejoin:round;stroke-miterlimit:1.41421;">
    <g transform="matrix(1.27823,0,0,1.27823,-206.964,-935.246)">
        <rect x="161.914" y="731.671" width="2038.38" height="898.863" style="fill:none;"/>
        <g transform="matrix(0.789502,0,0,0.789502,-306.763,286.794)">
            <path d="M1028.99,915.044C1073.82,889.335 1125.76,874.633 1181.1,874.633C1236.76,874.633 1288.97,889.501 1333.98,915.48C1337.24,913.644 1340.56,911.899 1343.93,910.249C1348.04,908.232 1352.23,906.357 1356.47,904.629C1358.36,903.857 1360.27,903.119 1362.18,902.403L1370.48,899.338C1370.7,899.467 1370.92,899.596 1371.15,899.725C1371.63,902.552 1372.13,905.377 1372.61,908.206C1372.68,908.615 1372.74,909.025 1372.81,909.435C1373.47,913.727 1374,918.039 1374.43,922.359C1374.9,926.932 1375.25,931.516 1375.5,936.106C1375.65,938.905 1375.76,941.706 1375.82,944.509C1444.05,1000.74 1487.57,1085.88 1487.57,1181.1C1487.57,1350.25 1350.25,1487.57 1181.1,1487.57C1011.96,1487.57 874.633,1350.25 874.633,1181.1L874.772,1181.2C880.575,1185.25 1068.19,1314.16 1305.34,1227.85C1305.34,1227.85 1048.32,1279.35 876.68,1145.53C885.785,1066.91 924.694,997.315 981.803,948.357C981.759,947.882 981.716,947.406 981.674,946.93C981.217,941.761 980.872,936.582 980.629,931.398C980.437,927.304 980.308,923.207 980.248,919.109C980.201,915.894 980.192,912.677 980.256,909.462L980.262,909.218L980.477,900.874L980.843,900.577C983.632,901.086 986.422,901.596 989.211,902.105C992.55,902.721 995.869,903.435 999.163,904.258C1005.1,905.742 1010.95,907.569 1016.67,909.739C1020.85,911.326 1024.96,913.096 1028.99,915.044ZM1066.7,1447.61C980.711,1421.53 894.168,1308.37 886.413,1201.87L886.526,1201.95C890.082,1204.43 982.008,1267.99 1115.48,1271.76L1115.48,1271.76L1053.1,1291.75L1120.6,1333.68L1120.59,1333.82L1120.57,1333.98L1024.66,1330.71L1108.12,1387.27L1108.12,1387.27L1027.4,1383.32L1066.7,1447.61ZM1213.41,1199.67C1213.41,1199.67 1243.35,1149.32 1301.34,1165.92C1301.34,1165.92 1271.22,1212.36 1213.41,1199.67ZM1139.69,1199.67C1139.69,1199.67 1109.75,1149.32 1051.76,1165.92C1051.76,1165.92 1081.88,1212.36 1139.69,1199.67ZM1359.11,919.328C1357.62,919.968 1356.13,920.623 1354.65,921.301C1351.8,922.61 1348.98,923.993 1346.19,925.447C1334.83,931.378 1324.07,938.483 1314.16,946.618C1310.48,949.64 1306.92,952.804 1303.49,956.112C1300.1,959.39 1296.84,962.809 1293.78,966.399L1293.62,966.584C1294.21,967.769 1294.83,968.936 1295.5,970.079C1296.6,971.975 1297.81,973.806 1299.13,975.56C1300.39,977.249 1301.76,978.867 1303.21,980.404C1304.23,981.492 1305.3,982.54 1306.4,983.547C1309.81,986.662 1313.58,989.379 1317.57,991.714C1321.39,993.957 1325.42,995.85 1329.56,997.437C1330.71,997.878 1331.87,998.295 1333.04,998.689C1334.6,999.216 1336.18,999.703 1337.76,1000.15C1339.84,1000.74 1341.93,1001.25 1344.04,1001.71C1347.18,1002.38 1350.35,1002.91 1353.54,1003.28L1353.57,1003.29C1354.33,1001.23 1355.01,999.146 1355.63,997.043C1356.44,994.289 1357.13,991.503 1357.73,988.698C1359.07,982.462 1359.95,976.132 1360.52,969.781C1361.22,961.84 1361.42,953.857 1361.27,945.887C1361.09,937.068 1360.47,928.258 1359.45,919.496L1359.42,919.197C1359.32,919.241 1359.21,919.284 1359.11,919.328ZM994.822,918.325C994.931,926.198 995.282,934.068 995.891,941.919C996.49,949.636 997.335,957.337 998.508,964.988C999.427,970.984 1000.55,976.951 1001.95,982.853C1003.16,987.93 1004.57,992.962 1006.3,997.889C1006.77,999.256 1007.28,1000.61 1007.81,1001.96L1007.84,1002.06C1009.24,1001.79 1010.63,1001.48 1012.01,1001.14C1014.25,1000.59 1016.46,999.961 1018.65,999.259C1020.44,998.687 1022.21,998.065 1023.96,997.392C1030.08,995.041 1035.97,992.065 1041.37,988.356C1046.46,984.866 1051.1,980.716 1054.98,975.917C1056.36,974.214 1057.64,972.433 1058.81,970.583C1060.16,968.456 1061.37,966.239 1062.42,963.952C1063.05,962.571 1063.63,961.164 1064.16,959.738L1064.17,959.698C1063.21,958.543 1062.21,957.417 1061.19,956.312C1059.99,955.016 1058.76,953.75 1057.5,952.513C1054.02,949.102 1050.33,945.907 1046.48,942.925C1036.47,935.173 1025.35,928.871 1013.59,924.189C1009.45,922.541 1005.23,921.094 1000.96,919.848C998.989,919.275 997.01,918.749 995.021,918.256L994.821,918.208C994.821,918.247 994.822,918.286 994.822,918.325Z" style="fill:url(#_Radial1);"/>
        </g>
        <g transform="matrix(4.92652,0,0,4.92652,805.883,740.181)">
            <path d="M166.882,45.42C172.401,43.744 177.59,42.38 182.628,40.59C190.327,37.854 197.87,34.682 205.934,33.066C212.634,31.723 219.332,30.852 226.083,32.608C229.975,33.62 233.613,35.157 236.198,38.439C238.092,40.844 238.662,43.511 237.132,46.285C236.694,47.08 235.792,47.833 234.936,48.14C233.093,48.8 231.643,47.379 232.019,45.456C232.221,44.423 232.524,43.41 232.711,42.376C232.975,40.918 232.515,39.741 231.315,38.804C228.694,36.756 225.628,35.849 222.432,35.376C213.134,33.999 204.264,35.844 195.612,39.137C188.072,42.007 180.554,44.934 172.994,47.751C171.171,48.43 169.233,48.821 167.327,49.249C166.377,49.462 165.917,49.867 165.757,50.877C164.364,59.701 162.769,68.496 161.525,77.341C159.953,88.513 159.532,99.766 159.97,111.039C160.075,113.738 160.363,116.459 160.896,119.104C161.728,123.232 163.905,123.977 167.148,121.341C170.495,118.621 173.265,115.332 175.364,111.591C179.266,104.638 182.971,97.575 186.743,90.55C189.073,86.211 191.391,81.871 194.916,78.329C197.862,75.369 201.352,73.736 205.578,73.98C206.194,74.016 206.786,74.481 207.389,74.747C206.937,75.223 206.556,75.814 206.015,76.144C205.387,76.527 204.639,76.796 203.91,76.914C199.698,77.596 196.496,79.94 194.39,83.443C191.633,88.029 189.12,92.787 186.836,97.628C182.607,106.594 178.212,115.45 171.726,123.038C169.758,125.341 167.509,127.525 165.026,129.238C161.404,131.738 157.91,130.669 155.619,126.857C153.42,123.197 152.644,119.1 152.112,114.96C150.921,105.678 151.651,96.396 152.252,86.909C151.936,87.333 151.704,87.615 151.504,87.918C149.321,91.226 147.171,94.557 144.944,97.835C144.438,98.58 144.377,99.13 144.708,99.99C147.98,108.48 148.922,117.141 146.046,125.924C143.729,132.998 139.546,138.537 132.423,141.469C126.257,144.008 119.992,142.038 117.239,136.597C115.691,133.539 115.841,130.395 116.958,127.242C118.137,123.912 120.163,121.123 122.555,118.577C126.686,114.181 130.807,109.775 134.971,105.411C135.705,104.642 135.743,104.047 135.323,103.059C133.056,97.729 129.643,93.154 126.041,88.533C124.345,91.295 122.835,94.095 121.005,96.669C116.729,102.682 112.462,108.714 107.882,114.494C104.279,119.042 99.512,121.761 93.452,121.707C86.607,121.646 81.098,117.753 79.081,111.209C78.334,108.786 78.02,106.229 77.487,103.626C77.269,103.983 76.975,104.437 76.709,104.906C73.733,110.157 70.099,114.791 64.4,117.295C58.451,119.909 52.553,119.458 46.851,116.487C45.974,116.03 45.221,115.152 44.672,114.301C44.062,113.355 44.64,112.618 45.772,112.784C46.352,112.869 46.942,113.095 47.457,113.383C52.948,116.459 57.055,114.731 60.024,109.945C63.929,103.651 65.653,96.634 65.42,89.256C65.23,83.246 60.223,80.37 54.953,83.236C52.999,84.298 51.112,85.942 49.875,87.779C45.638,94.072 42.048,100.749 39.426,107.898C39.053,108.916 38.826,110.033 38.772,111.117C38.052,125.586 37.765,140.056 38.872,154.522C38.949,155.522 38.973,156.533 38.935,157.535C38.861,159.515 37.624,160.788 35.776,160.865C33.867,160.945 32.479,159.857 32.318,157.873C31.748,150.866 31.003,143.859 30.795,136.839C30.331,121.192 31.279,105.584 32.86,90.019C33.341,85.28 34.026,80.558 34.732,75.846C34.914,74.631 35.408,73.418 35.984,72.323C36.435,71.467 37.094,70.543 37.906,70.087C40.41,68.684 42.612,68.993 42.525,72.291C42.399,77.045 42.002,81.804 41.471,86.533C40.95,91.164 40.117,95.76 39.42,100.372C39.538,100.414 39.656,100.456 39.774,100.498C39.991,100.057 40.21,99.618 40.423,99.175C43.204,93.385 45.85,87.511 50.05,82.552C52.537,79.615 55.495,77.236 59.429,76.72C65.065,75.981 68.954,78.465 71.158,83.779C74.361,91.501 73.274,98.903 69.586,106.121C67.993,109.239 65.92,111.995 63.283,114.428C63.7,114.187 64.133,113.97 64.532,113.702C69.076,110.65 71.993,106.221 74.905,101.727C77.813,97.241 79.074,92.1 81.181,87.302C84.031,80.812 88.334,75.54 95.187,72.911C99.466,71.269 103.578,71.383 107.033,74.885C110.218,78.113 109.799,83.733 106.201,87.027C102.035,90.841 96.932,92.721 91.605,94.141C90.733,94.373 89.849,94.678 88.962,94.711C87.431,94.768 86.839,95.495 86.659,96.965C86.039,102.024 86.066,107.036 88.169,111.765C88.9,113.408 90.055,115.009 91.395,116.205C94.045,118.569 97.38,118.528 100.751,116.485C104.616,114.144 107.574,110.816 110.119,107.205C114.714,100.684 119.033,93.97 123.505,87.362C124.117,86.458 124.005,85.854 123.357,85.011C120.384,81.142 117.566,77.16 116.175,72.393C114.728,67.433 114.941,62.536 117.239,57.874C119.632,53.02 125.099,50.299 130.515,50.874C133.373,51.177 135.888,51.967 137.202,54.714C138.514,57.458 138.232,60.399 137.776,63.3C136.959,68.503 135.191,73.386 132.812,78.071C132.577,78.534 132.537,79.355 132.794,79.77C135.996,84.927 139.269,90.04 142.528,95.16C142.605,95.281 142.743,95.362 143.19,95.768C146.399,90.448 149.578,85.231 152.68,79.969C153.062,79.321 153.081,78.436 153.183,77.649C154.313,68.984 155.427,60.316 156.539,51.648C156.557,51.511 156.508,51.366 156.481,51.144C152.597,51.523 148.765,51.438 144.995,50.401C140.064,49.045 137.11,44.508 138.54,40.174C138.982,38.835 139.851,37.583 140.74,36.461C141.685,35.268 143.897,35.186 145.175,36.054C146.077,36.667 146.007,37.4 145.581,38.275C144.781,39.918 144.14,41.617 144.702,43.484C145.633,46.578 147.847,48.094 151.213,47.848C152.912,47.724 154.591,47.348 156.289,47.189C157.186,47.105 157.408,46.682 157.549,45.869C158.816,38.55 160.122,31.238 161.442,23.929C161.974,20.981 163.678,19.045 166.616,18.309C170.065,17.445 172.58,19.806 171.818,23.286C170.36,29.95 168.805,36.593 167.294,43.246C167.18,43.769 167.095,44.304 166.882,45.42ZM136.913,107.995C132.112,112.901 127.383,117.539 122.894,122.399C120.575,124.909 119.243,128.005 119.424,131.589C119.696,136.972 124.686,140.217 129.358,137.949C132.896,136.232 135.405,133.46 136.722,129.776C139.282,122.616 138.68,115.386 136.913,107.995ZM88.301,91.014C88.623,91.113 88.673,91.147 88.714,91.138C89.203,91.035 89.696,90.945 90.177,90.814C94.851,89.537 99.412,88.02 103.022,84.563C105.393,82.292 105.844,79.755 104.268,77.756C102.636,75.687 99.754,75.518 97.071,77.336C96.905,77.449 96.732,77.558 96.585,77.693C92.599,81.352 90.245,86.008 88.301,91.014ZM130.221,75.724C132.121,72.019 133.46,68.24 133.971,64.254C134.265,61.962 134.255,59.57 133.943,57.282C133.691,55.426 132.197,54.81 130.309,55.109C127.604,55.538 126.445,57.441 125.885,59.793C124.445,65.833 127.045,70.802 130.221,75.724Z" style="fill-rule:nonzero;"/>
        </g>
    </g>
    <defs>
        <radialGradient id="_Radial1" cx="0" cy="0" r="1" gradientUnits="userSpaceOnUse" gradientTransform="matrix(-2.34668e-13,-612.939,612.939,-2.34668e-13,1181.1,1353.89)"><stop offset="0" style="stop-color:rgb(255,143,0);stop-opacity:1"/><stop offset="1" style="stop-color:rgb(240,35,82);stop-opacity:1"/></radialGradient>
    </defs>
</svg>
